icons/svg/icons8/beer_glass.svg

<?xml version="1.0" encoding="utf-8"?>
<!-- Generator: Adobe Illustrator 16.0.0, SVG Export Plug-In . SVG Version: 6.00 Build 0)  -->
<!DOCTYPE svg PUBLIC "-//W3C//DTD SVG 1.1//EN" "http://www.w3.org/Graphics/SVG/1.1/DTD/svg11.dtd">
<svg version="1.1" id="Layer_1" xmlns="http://www.w3.org/2000/svg" xmlns:xlink="http://www.w3.org/1999/xlink" x="0px" y="0px"
	 width="26px" height="26px" viewBox="0 0 26 26" enable-background="new 0 0 26 26" xml:space="preserve">
<rect fill="none" width="26" height="26"/>
<g>
	<path fill="#333333" d="M17.305,2C17.637,3.418,18,6.282,18,8.188c0,3.428-0.795,5.683-1.496,7.672
		c-0.517,1.464-1.004,2.847-1.004,4.345c0,1.169,0.39,2.483,0.802,3.549c-0.924-0.097-2.079-0.181-3.302-0.181
		s-2.378,0.084-3.302,0.181c0.413-1.065,0.802-2.38,0.802-3.549c0-1.498-0.487-2.881-1.003-4.345C8.795,13.87,8,11.616,8,8.188
		C8,6.282,8.363,3.418,8.695,2H17.305 M18.5,0h-11C6.681,0,6,5.67,6,8.188c0,6.312,2.5,9.146,2.5,12.017
		c0,1.901-1.5,4.644-1.5,4.644C7,25.682,7.554,26,8,26c0,0,2.346-0.428,5-0.428S18,26,18,26c0.446,0,1-0.318,1-1.152
		c0,0-1.5-2.742-1.5-4.644c0-2.87,2.5-5.704,2.5-12.017C20,5.67,19.319,0,18.5,0L18.5,0z"/>
</g>
<path fill="#333333" d="M20,8.188C20,7.595,19.961,6.826,19.893,6c0,0-2.916,0-3.893,0s-1,1.199-1,2.181S16.398,12,14.5,12
	S14,9.15,14,8.181S13.998,6,13,6S9.607,6,9.607,6C9.539,6.826,9.5,7.595,9.5,8.188c0,6.312,2.5,9.146,2.5,12.017
	c0,0.579-0.146,1.234-0.339,1.868C12.086,22.031,12.527,22,13,22c3,0,5.156,1,5.156,1c-0.341-0.879-0.656-1.925-0.656-2.796
	C17.5,17.334,20,14.5,20,8.188z"/>
</svg>

<svg width="26" height="26" viewBox="0 0 26 26" fill="none" xmlns="http://www.w3.org/2000/svg">
<path d="M17.305 2C17.637 3.418 18 6.282 18 8.188C18 11.616 17.205 13.871 16.504 15.86C15.987 17.324 15.5 18.707 15.5 20.205C15.5 21.374 15.89 22.688 16.302 23.754C15.378 23.657 14.223 23.573 13 23.573C11.777 23.573 10.622 23.657 9.698 23.754C10.111 22.689 10.5 21.374 10.5 20.205C10.5 18.707 10.013 17.324 9.497 15.86C8.795 13.87 8 11.616 8 8.188C8 6.282 8.363 3.418 8.695 2H17.305ZM18.5 0H7.5C6.681 0 6 5.67 6 8.188C6 14.5 8.5 17.334 8.5 20.205C8.5 22.106 7 24.849 7 24.849C7 25.682 7.554 26 8 26C8 26 10.346 25.572 13 25.572C15.654 25.572 18 26 18 26C18.446 26 19 25.682 19 24.848C19 24.848 17.5 22.106 17.5 20.204C17.5 17.334 20 14.5 20 8.187C20 5.67 19.319 0 18.5 0Z" fill="#333333"/>
<path d="M20 8.188C20 7.595 19.961 6.826 19.893 6C19.893 6 16.977 6 16 6C15.023 6 15 7.199 15 8.181C15 9.163 16.398 12 14.5 12C12.602 12 14 9.15 14 8.181C14 7.212 13.998 6 13 6C12.002 6 9.607 6 9.607 6C9.539 6.826 9.5 7.595 9.5 8.188C9.5 14.5 12 17.334 12 20.205C12 20.784 11.854 21.439 11.661 22.073C12.086 22.031 12.527 22 13 22C16 22 18.156 23 18.156 23C17.815 22.121 17.5 21.075 17.5 20.204C17.5 17.334 20 14.5 20 8.188Z" fill="#333333"/>
</svg>
